!!!OTL: ZWEI HERZEN IM LEBEN
!!!ARE: Europa, Mitteleuropa, Deutschland, Schwaben,
!!!SCT: E0549
!!!YEM: Copyright 1995, estate of Helmut Schaffrath.
**kern
*ICvox
*Ivox
*M3/8
*k[f#]
*G:
{16g
16a
=1
8b
8b
8cc
=2
16ee
16dd
8dd}
{8b
=3
16dd
16cc
8cc
8a
=4
16cc
16b
8b}
{16g
16a
=5
8b
8b
8cc
=6
16ee
16dd
8dd}
{8b
=7
16dd
16cc
8cc
8a
=8
16cc
16b
8b}
{16b
16dd
=9
16dd
16cc
8cc
8a
=10
16cc
16b
8b}
{16b
16dd
=11
16dd
16cc
8cc
16a
16cc
=12
16cc
16b
8b}
{16g
16a
=13
8b
8b
8cc
=14
4dd}
{16b
16dd
=15
16dd
16cc
8cc
8dd
=16
4b}
==
!!!AGN: Liebes - Lied, Treue
!!!ONB: ESAC (Essen Associative Code) Database: ERK1
!!!AMT: simple triple
!!!AIN: vox
!!!EED: Helmut Schaffrath
!!!EEV: 1.0
*-
